X: 275
T: My Mind Will Never Be Easy
R: slip jig
M: 9/8
L: 1/8
K: Edor
gf|:edB BAB G2A|B2d deB dgf|edB BAB G2A|1 B2e efd egf:|2 B2e efd e2e||
|:def ~g3 fed|B2d deB d2B|deg age dBA|1 B2e efd e2e:|2 B2e efd e||
F: https://thesession.org/tunes/191#setting12843

